X:112
T:Hunting the Hare
R:reel
S:Bear Sessions
M:4/4
L:1/8
K:D
c2|:d2 D2 FG A2 | B2 ed cB A2 | d2 D2 FG A2 | B2 fe d2 A2 |
  | d2 D2 FG A2| B2 ed cB A2 | d2 D2 FG A2 |1 B2 fe d2 c2:|2 B2 fe d2 e2|
  |:fede fede | f2 fg fedf | e2 ef e2 f2 | g2 f2 e2 A2 |
  | d2 D2 FG A2 |B2 ed cB A2 | d2 D2 FG A2 |1 B2 fe d2 e2:|2 B2 fe d2 c2|
